X: 1
T: Fahey's
M: 4/4
L: 1/8
R: reel
K: Dmaj
|:DEFD G2 AG|~F3 A defa|g3 e fdAG|(3EFG Ad dcAF|
DEFD GBAG|~F3 A defa|g3 A (3Bcd ed|1cAGE EDDC:|2cAGE EDD2||
|:agfa gf (3efg|fdAF D3 =c|B~G3 dGBg|fged (3B^cd eg|
fgaf gfeg|fdAF G2 FG|ADFA (3Bcd ed|cAGE EDD2:|
